storage/app/icons/phosphoricons/fill/mailbox-fill.svg

<svg xmlns="http://www.w3.org/2000/svg" fill="currentColor" viewBox="0 0 256 256"><path d="M104 152a8 8 0 0 1-8 8H56a8 8 0 0 1 0-16h40a8 8 0 0 1 8 8m64-120h24a8 8 0 0 0 0-16h-32a8 8 0 0 0-8 8v32h16Zm72 84v60a16 16 0 0 1-16 16h-88v32a8 8 0 0 1-16 0v-32H32a16 16 0 0 1-16-16v-60a60.07 60.07 0 0 1 60-60h76v88a8 8 0 0 0 16 0V56h12a60.07 60.07 0 0 1 60 60m-120 0a44 44 0 0 0-88 0v60h88Z"/></svg>

<svg xmlns="http://www.w3.org/2000/svg" viewBox="0 0 256 256" fill="currentColor"><path d="M104,152a8,8,0,0,1-8,8H56a8,8,0,0,1,0-16H96A8,8,0,0,1,104,152ZM168,32h24a8,8,0,0,0,0-16H160a8,8,0,0,0-8,8V56h16Zm72,84v60a16,16,0,0,1-16,16H136v32a8,8,0,0,1-16,0V192H32a16,16,0,0,1-16-16V116A60.07,60.07,0,0,1,76,56h76v88a8,8,0,0,0,16,0V56h12A60.07,60.07,0,0,1,240,116Zm-120,0a44,44,0,0,0-88,0v60h88Z"/></svg>
